packages/swarm-icons/src/icons/line/Info Circled.svg

<svg xmlns="http://www.w3.org/2000/svg" width="24" height="24" viewBox="0 0 24 24">
  <path fill="#757575" d="M12,21 C16.9705627,21 21,16.9705627 21,12 C21,7.02943725 16.9705627,3 12,3 C7.02943725,3 3,7.02943725 3,12 C3,16.9705627 7.02943725,21 12,21 Z M12,22 C6.4771525,22 2,17.5228475 2,12 C2,6.4771525 6.4771525,2 12,2 C17.5228475,2 22,6.4771525 22,12 C22,17.5228475 17.5228475,22 12,22 Z M11.336,18 L12.664,18 L12.664,9.632 L11.336,9.632 L11.336,18 Z M11.976,7.888 C12.456,7.888 12.856,7.488 12.856,7.008 C12.856,6.528 12.456,6.128 11.976,6.128 C11.496,6.128 11.096,6.528 11.096,7.008 C11.096,7.488 11.496,7.888 11.976,7.888 Z"/>
</svg>

<svg xmlns="http://www.w3.org/2000/svg" width="24" height="24"><path fill="#757575" d="M12 21a9 9 0 100-18 9 9 0 000 18zm0 1C6.477 22 2 17.523 2 12S6.477 2 12 2s10 4.477 10 10-4.477 10-10 10zm-.664-4h1.328V9.632h-1.328V18zm.64-10.112c.48 0 .88-.4.88-.88s-.4-.88-.88-.88-.88.4-.88.88.4.88.88.88z"/></svg>
